src/assets/img/pour-perceivable.svg

<svg width="100%" height="100%" viewBox="0 0 44.6987 30.3952" xmlns="http://www.w3.org/2000/svg">
<path d="M22.3494 24.3161C24.9542 24.3161 27.1683 23.4296 28.9917 21.6565C30.815 19.8835 31.7267 17.7305 31.7267 15.1976C31.7267 12.6646 30.815 10.5117 28.9917 8.73861C27.1683 6.96556 24.9542 6.07903 22.3494 6.07903C19.7446 6.07903 17.5305 6.96556 15.7071 8.73861C13.8837 10.5117 12.972 12.6646 12.972 15.1976C12.972 17.7305 13.8837 19.8835 15.7071 21.6565C17.5305 23.4296 19.7446 24.3161 22.3494 24.3161ZM22.3494 20.6687C20.7865 20.6687 19.458 20.1368 18.364 19.073C17.27 18.0091 16.723 16.7173 16.723 15.1976C16.723 13.6778 17.27 12.386 18.364 11.3222C19.458 10.2584 20.7865 9.72645 22.3494 9.72645C23.9123 9.72645 25.2407 10.2584 26.3348 11.3222C27.4288 12.386 27.9758 13.6778 27.9758 15.1976C27.9758 16.7173 27.4288 18.0091 26.3348 19.073C25.2407 20.1368 23.9123 20.6687 22.3494 20.6687ZM22.3494 30.3952C17.6954 30.3952 13.4496 29.1793 9.61179 26.7477C5.77402 24.3161 2.74375 21.1077 0.520964 17.1226C0.34731 16.8187 0.217069 16.5063 0.130241 16.1854C0.0434137 15.8646 0 15.5353 0 15.1976C0 14.8599 0.0434137 14.5306 0.130241 14.2097C0.217069 13.8889 0.34731 13.5765 0.520964 13.2725C2.74375 9.28741 5.77402 6.07903 9.61179 3.64742C13.4496 1.21581 17.6954 0 22.3494 0C27.0033 0 31.2492 1.21581 35.087 3.64742C38.9247 6.07903 41.955 9.28741 44.1778 13.2725C44.3514 13.5765 44.4817 13.8889 44.5685 14.2097C44.6553 14.5306 44.6988 14.8599 44.6988 15.1976C44.6988 15.5353 44.6553 15.8646 44.5685 16.1854C44.4817 16.5063 44.3514 16.8187 44.1778 17.1226C41.955 21.1077 38.9247 24.3161 35.087 26.7477C31.2492 29.1793 27.0033 30.3952 22.3494 30.3952ZM22.3494 26.3425C26.274 26.3425 29.8773 25.3377 33.1594 23.3283C36.4415 21.3188 38.9508 18.6086 40.6873 15.1976C38.9508 11.7866 36.4415 9.07633 33.1594 7.06687C29.8773 5.05741 26.274 4.05269 22.3494 4.05269C18.4248 4.05269 14.8214 5.05741 11.5394 7.06687C8.25729 9.07633 5.74797 11.7866 4.01143 15.1976C5.74797 18.6086 8.25729 21.3188 11.5394 23.3283C14.8214 25.3377 18.4248 26.3425 22.3494 26.3425Z" fill="var(--fill-0, #154973)"/>
</svg>

<svg xmlns="http://www.w3.org/2000/svg" viewBox="0 0 44.699 30.395"><path fill="var(--fill-0, #154973)" d="M22.35 24.316q3.906 0 6.642-2.66 2.735-2.658 2.735-6.458t-2.735-6.46Q26.256 6.08 22.349 6.08t-6.642 2.66q-2.735 2.66-2.735 6.459t2.735 6.459 6.642 2.66m0-3.647q-2.345 0-3.986-1.596t-1.641-3.875 1.641-3.876q1.64-1.596 3.985-1.596t3.986 1.596 1.64 3.876-1.64 3.875-3.986 1.596m0 9.726q-6.982 0-12.738-3.647Q3.855 23.1.52 17.123a4 4 0 0 1-.39-.938Q0 15.705 0 15.198t.13-.988q.13-.482.391-.937 3.335-5.978 9.09-9.626Q15.37 0 22.35 0q6.981 0 12.738 3.647t9.09 9.626q.261.455.392.937.13.48.13.988 0 .506-.13.987-.131.482-.391.938-3.334 5.977-9.091 9.625t-12.738 3.647m0-4.052q5.886 0 10.81-3.015 4.922-3.015 7.527-8.13-2.604-5.117-7.528-8.131T22.35 4.053 11.54 7.067t-7.528 8.13q2.605 5.118 7.528 8.131 4.924 3.015 10.81 3.015"/></svg>
